fa/beer-mug-empty.svg

<svg xmlns="http://www.w3.org/2000/svg" viewBox="0 0 512 512" height="1em" width="1em">
  <path d="M432 96h-48V64c0-17.67-14.33-32-32-32H64c-17.67 0-32 14.33-32 32v352c0 35.35 28.65 64 64 64h224c35.35 0 64-28.65 64-64v-32.08l80.66-35.94C493.5 335.1 512 306.5 512 275v-99c0-44.2-35.8-80-80-80zM160 368c0 8.9-7.1 16-16 16s-16-7.1-16-16V144c0-8.9 7.1-16 16-16s16 7.1 16 16v224zm64 0c0 8.9-7.1 16-16 16s-16-7.1-16-16V144c0-8.9 7.1-16 16-16s16 7.1 16 16v224zm64 0c0 8.875-7.125 16-16 16s-16-7.1-16-16V144c0-8.9 7.1-16 16-16s16 7.1 16 16v224zm160-93c0 6.25-3.75 12-9.5 14.62L384 313.9V160h48c8.9 0 16 7.1 16 16v99z"/>
</svg>

<svg xmlns="http://www.w3.org/2000/svg" viewBox="0 0 512 512" height="1em" width="1em">
  <path d="M432 96H384V64c0-17.67-14.33-32-32-32H64C46.33 32 32 46.33 32 64v352c0 35.35 28.65 64 64 64h224c35.35 0 64-28.65 64-64v-32.08l80.66-35.94C493.5 335.1 512 306.5 512 275V176C512 131.8 476.2 96 432 96zM160 368C160 376.9 152.9 384 144 384S128 376.9 128 368v-224C128 135.1 135.1 128 144 128S160 135.1 160 144V368zM224 368C224 376.9 216.9 384 208 384S192 376.9 192 368v-224C192 135.1 199.1 128 208 128S224 135.1 224 144V368zM288 368c0 8.875-7.125 16-16 16S256 376.9 256 368v-224C256 135.1 263.1 128 272 128S288 135.1 288 144V368zM448 275c0 6.25-3.75 12-9.5 14.62L384 313.9V160h48C440.9 160 448 167.1 448 176V275z"/>
</svg>
